archcraft-icons-qogir/files/Qogir-Dark/32/actions/zoom-in.svg

<svg version="1.1" viewBox="0 0 32 32" xmlns="http://www.w3.org/2000/svg">
 <defs>
  <style id="current-color-scheme" type="text/css">.ColorScheme-Text {
        color:#d3dae3;
      }</style>
 </defs>
 <path class="ColorScheme-Text" d="m11 4v1h4v-1zm6 0v1h4v-1zm-2.0703 6v1h5.3633l-7.8398 7.8379 0.70898 0.70898 7.8379-7.8398v5.3633h1v-7.0703zm-10.93 1v4h1v-4zm23 0v4h1v-4zm-23 6v3h1v-3zm23 0v4h1v-4zm-15 10v1h3v-1zm5 0v1h4v-1z" fill="currentColor"/>
 <path class="ColorScheme-Text" d="m7 4c-1.662 0-3 1.338-3 3v2h1v-2c0-1.108 0.892-2 2-2h2v-1zm16 0v1h2c1.108 0 2 0.892 2 2v2h1v-2c0-1.662-1.338-3-3-3zm4 19v2c0 1.108-0.892 2-2 2h-2v1h2c1.662 0 3-1.338 3-3v-2z" fill="currentColor"/>
 <path class="ColorScheme-Text" d="m6 21c-1.108 0-2 0.892-2 2v3c0 1.108 0.892 2 2 2h3c1.108 0 2-0.892 2-2v-3c0-1.108-0.892-2-2-2h-3zm0 1h3c0.554 0 1 0.446 1 1v3c0 0.554-0.446 1-1 1h-3c-0.554 0-1-0.446-1-1v-3c0-0.554 0.446-1 1-1z" fill="currentColor"/>
</svg>

<svg xmlns="http://www.w3.org/2000/svg" viewBox="0 0 32 32">
  <defs id="defs3051">
    <style type="text/css" id="current-color-scheme">
      .ColorScheme-Text {
        color:#d3dae3;
      }
      </style>
  </defs>
 <path style="fill:currentColor;fill-opacity:1;stroke:none" 
       d="M 4 4 L 4 9 L 5 9 L 5 5 L 9 5 L 9 4 L 4 4 z M 11 4 L 11 5 L 15 5 L 15 4 L 11 4 z M 17 4 L 17 5 L 21 5 L 21 4 L 17 4 z M 23 4 L 23 5 L 27 5 L 27 9 L 28 9 L 28 5 L 28 4 L 27 4 L 23 4 z M 14.929688 10 L 14.929688 11 L 20.292969 11 L 12.453125 18.837891 L 13.162109 19.546875 L 21 11.707031 L 21 17.070312 L 22 17.070312 L 22 11.414062 L 22 10 L 14.929688 10 z M 4 11 L 4 15 L 5 15 L 5 11 L 4 11 z M 27 11 L 27 15 L 28 15 L 28 11 L 27 11 z M 4 17 L 4 20 L 5 20 L 5 17 L 4 17 z M 27 17 L 27 21 L 28 21 L 28 17 L 27 17 z M 4 21 L 4 23 L 4 28 L 9 28 L 11 28 L 11 21 L 4 21 z M 5 22 L 10 22 L 10 27 L 9 27 L 5 27 L 5 23 L 5 22 z M 27 23 L 27 27 L 23 27 L 23 28 L 28 28 L 28 23 L 27 23 z M 12 27 L 12 28 L 15 28 L 15 27 L 12 27 z M 17 27 L 17 28 L 21 28 L 21 27 L 17 27 z "
     class="ColorScheme-Text"
     />
</svg>
